!!!COM: Haydn, Franz Joseph
!!!OTL: String Quartet in D Major
!!!OPS: Opus 50
!!!ONM: No. 6
!!!OMD: Menuetto: Allegretto
!!!OMV: 3
!!!SCT: H III:49
!!!SCA: Thematisch-bibliographisches Werkevererzeichnis (A. van Hoboken)
!!!YOR: Trautwein Edition
!!!ENC: Frances Bennion
!!!CDT: 1732/3/31/-1809/5/31/
!!!CNT: Oesterreich
!!!YEC: Copyright (c) 1994, 2000 Center for Computer Assisted Research in the Humanities
!!!YEM: Rights to all derivative editions reserved.
!!!YEM: Refer to licensing agreement for further details.
!!!YEN: United States of America
**kern	**kern	**kern	**kern
*k[f#c#]	*k[f#c#]	*k[f#c#]	*k[f#c#]
*D:	*D:	*D:	*D:
*clefF4	*clefC3	*clefG	*clefG
*M3/4	*M3/4	*M3/4	*M3/4
2r	2r	2r	2r
4r	8f#	8a	8.aa
.	8r	8r	.
.	.	.	16aa
=1	=1	=1	=1
4D	8d	8f#	2aa
.	8r	8r	.
2r	8A	8d	.
.	8r	8r	.
.	4F#	4A	4ddd
=2	=2	=2	=2
4GG	4G	4B	4ddd
2r	2r	2r	16ccc#
.	.	.	8.bb
.	.	.	16aa#
.	.	.	8.bb
=3	=3	=3	=3
4AA	4G	4c#	32aa
.	.	.	16.gg
.	.	.	8r
2r	2r	2r	32ff#
.	.	.	16.ee
.	.	.	8r
.	.	.	32dd
.	.	.	16.cc#
.	.	.	8r
=4	=4	=4	=4
4D	4F#	4d	32b
.	.	.	16.a
.	.	.	8r
2r	2r	2r	32g
.	.	.	16.f#
.	.	.	8r
.	.	.	32e
.	.	.	16.d
.	.	.	8r
=5	=5	=5	=5
2.FF#	[2.D	2.A	2.c
=6	=6	=6	=6
4GG	4D]	4B	4B
2r	2r	2r	32d#
.	.	.	16.e
.	.	.	8r
.	.	.	32f#
.	.	.	16.g
.	.	.	8r
=7	=7	=7	=7
2r	2r	2r	32a#
.	.	.	16.b
.	.	.	4.r
8.AA	8.G	8.e	8.c#
16AA	16G	16e	16c#
=8	=8	=8	=8
4DD	4F#	4d	4d
4r	4r	4r	4r
8.F#	8.f#	8.f#	8.f#
16F#	16f#	16f#	16f#
=9	=9	=9	=9
[2.F#	2f#	2f#	2f#
.	8.e	8.g	8.a#
.	16e	16g	16a#
=10	=10	=10	=10
2.F#_	4e	4g	4a#
.	4d	4f#	4b
.	4c#	4e	4cc#
=11	=11	=11	=11
2.F#]	2.A#	2.g	2.ee
=12	=12	=12	=12
4BB	4A	4f#	4dd#
2r	4r	4r	4r
.	8.a	8.dd#	8.ccc
.	16a	16dd#	16ccc
=13	=13	=13	=13
2r	4a	4dd#	4ccc
.	4r	4r	4r
8.B	8.a	8.cc	8.dd#
16B	16a	16cc	16dd#
=14	=14	=14	=14
[2.B	4a	4cc	4dd#
.	4g	4b	4ee
.	4f#	4a	4ff#
=15	=15	=15	=15
2.B]	2.d#	2.cc	2.aa
=16	=16	=16	=16
4E	4d	4b	4gg#
2r	4r	4r	4r
.	8.dd	8.gg#	8.fff
.	16dd	16gg#	16fff
=17	=17	=17	=17
2.r	4dd	4gg#	4fff
.	4r	4r	4r
.	8.cc#	8.aa	8.eee
.	16cc#	16aa	16eee
=18	=18	=18	=18
2r	4cc#	4aa	4eee
.	4r	4r	4r
16GG#	16G#	16G#	16g#
8.AA	8.A	8.A	8.a
=19	=19	=19	=19
16BB	16B	16B	16b
8.AA	8.A	8.A	8.a
16D	16d	16d	16dd
8.C#	8.c#	8.c#	8.cc#
16F#	16f#	16f#	16ff#
8.E	8.e	8.e	8.ee
=20	=20	=20	=20
4G	2ee	2cc#	2aa
4r	.	.	.
16G#	4ee	4cc#	4aa
8.A	.	.	.
=21	=21	=21	=21
16B	4ee	4cc#	4aa
8.A	.	.	.
16d	4ee	4cc#	4aa
8.c#	.	.	.
16f#	4ee	4cc#	4aa
8.e	.	.	.
=22	=22	=22	=22
4g	4ee	4cc#	4aa
4r	4r	4r	4r
8.g	8.ee	8.cc#	8.aa
16g	16ee	16cc#	16aa
=23	=23	=23	=23
4g	4ee	4cc#	4aa
4r	4r	4r	4r
4g	4ee	32dd	32bb
.	.	16.cc#	16.aa
.	.	8r	8r
=24	=24	=24	=24
4g	4ee	32dd	32bb
.	.	16.cc#	16.aa
.	.	4.r	4.r
2r	4r	.	.
.	8f#	8a	8.aa
.	8r	8r	.
.	.	.	16aa
=25	=25	=25	=25
4D	8d	8f#	2aa
.	8r	8r	.
2r	8A	8d	.
.	8r	8r	.
.	4F#	4A	[4ddd
=26	=26	=26	=26
4GG	4G	4B	4ddd]
2r	2r	2r	16ccc#
.	.	.	8.bb
.	.	.	16aa#
.	.	.	8.bb
=27	=27	=27	=27
4AA	4G	4c#	32aa
.	.	.	16.gg
.	.	.	8r
2r	2r	2r	32ff#
.	.	.	16.ee
.	.	.	8r
.	.	.	32dd
.	.	.	16.cc#
.	.	.	8r
=28	=28	=28	=28
4D	4F#	4d	32b
.	.	.	16.a
.	.	.	8r
2r	2r	2r	32g
.	.	.	16.f#
.	.	.	8r
.	.	.	32e
.	.	.	16.d
.	.	.	8r
=29	=29	=29	=29
2.FF#	[2.D	2.A	2.c
=30	=30	=30	=30
4GG	4D]	4B	4B
2r	2r	2r	32d#
.	.	.	16.e
.	.	.	8r
.	.	.	32f#
.	.	.	16.g
.	.	.	8r
=31	=31	=31	=31
2r	2r	2r	32a#
.	.	.	16.b
.	.	.	4.r
8.AA	8.G	8.e	8.c#
16AA	16G	16e	16c#
=32	=32	=32	=32
4DD	4F#	4d	4d
4r	4r	4r	4r
4d	4d	4f#	16ff#
.	.	.	16ee
.	.	.	16ff#
.	.	.	16gg
=33	=33	=33	=33
4c#	4c#	4e	4aa
4B	4B	4d	4aa
4A	4A	4c#	4aa
=34	=34	=34	=34
2G	2B	4B	4aa
.	.	4c#	4aa
4GG	[4B	4d#	[4aa
=35	=35	=35	=35
2G	2B]	2e	4aa]
.	.	.	4gg
4A	4c	4d#	4ff#
=36	=36	=36	=36
4G	4B	4e	4ee
4r	2r	4r	4r
4e	.	4g	16ee
.	.	.	16dd#
.	.	.	16ee
.	.	.	16ff#
=37	=37	=37	=37
4d	2.r	4f#	4gg
4c#	.	4e	4gg
4B	.	4d	4gg
=38	=38	=38	=38
4B-	2r	2c#	4gg
4A	.	.	4gg
4c#	[4a	[4ee	[4gg
=39	=39	=39	=39
2d	2a]	4ee]	4gg]
.	.	4dd	4ff#
4G	[4A	4cc#	4ee
=40	=40	=40	=40
4F#	4A]	4dd	4dd
2r	2r	2r	4r
.	.	.	16dd
.	.	.	16cc#
.	.	.	16dd
.	.	.	16ee
=41	=41	=41	=41
2.BB	2.B	4dd	4ff#
.	.	4dd	4ff#
.	.	[4dd	[4ff#
=42	=42	=42	=42
2FF#	2F#	4dd]	4ff#]
.	.	4cc#	4ee
4FF	4F	[4b	[4dd
=43	=43	=43	=43
2EE	2E	4b]	4dd]
.	.	4a	4cc#
4EE	4d	4g#	4b
=44	=44	=44	=44
4AA	4c#	4a	4a
2r	2r	2r	4r
.	.	.	16cc#
.	.	.	16b
.	.	.	16cc#
.	.	.	16dd
=45	=45	=45	=45
[2.AA	2.c#	2.e	4ee
.	.	.	4ee
.	.	.	[4aa
=46	=46	=46	=46
2.AA_	2.d	2.f	4aa]
.	.	.	4gg#
.	.	.	[4bb
=47	=47	=47	=47
2.AA_	2c#	2e	4bb]
.	.	.	4aa
.	4f	4a	[4ddd
=48	=48	=48	=48
2.AA_	2e	2g	4ddd]
.	.	.	4ccc#
.	4d#	4f#	[4ccc
=49	=49	=49	=49
2.AA_	2e	2g	4ccc]
.	.	.	4bb
.	4d	4f	[4bb-
=50	=50	=50	=50
2.AA_	2c#	2e	4bb-]
.	.	.	4aa
.	4d	4f	[4gg#
=51	=51	=51	=51
2.AA_	2c#	2e	4gg#]
.	.	.	4aa
.	4c	4e-	[4ff#
=52	=52	=52	=52
2.AA_	2.B	2.d	4ff#]
.	.	.	4gg
.	.	.	[4gg
=53	=53	=53	=53
2.AA_	2.B#	2.d#	4gg]
.	.	.	4gg
.	.	.	[4gg
=54	=54	=54	=54
2.AA]	[2.c#	[2.e	4gg]
.	.	.	4gg
.	.	.	[4gg
=55	=55	=55	=55
2.BB-	2.c#_	2.e_	4gg]
.	.	.	4gg
.	.	.	4gg
=56	=56	=56	=56
2AA	2c#]	2e]	2gg
4d	4d	4f#	16ff#
.	.	.	16ee
.	.	.	16ff#
.	.	.	16gg
=57	=57	=57	=57
4c#	4c#	4e	4aa
4B	4B	4d	4aa
4A	4A	4c#	4aa
=58	=58	=58	=58
2G	2B	4B	4aa
.	.	4c#	4aa
4GG	[4B	4d#	[4aa
=59	=59	=59	=59
2G	2B]	2e	4aa]
.	.	.	4gg
4A	4c	4d#	4ff#
=60	=60	=60	=60
4G	4B	4e	4ee
4r	2r	4r	4r
4e	.	4g	16ee
.	.	.	16dd#
.	.	.	16ee
.	.	.	16ff#
=61	=61	=61	=61
4d	2.r	4f#	4gg
4c#	.	4e	4gg
4B	.	4d	4gg
=62	=62	=62	=62
4B-	2r	2c#	4gg
4A	.	.	4gg
4c#	[4a	[4ee	[4gg
=63	=63	=63	=63
2d	2a]	4ee]	4gg]
.	.	4dd	4ff#
4G	[4A	4cc#	4ee
=64	=64	=64	=64
4F#	4A]	4dd	4dd
2r	2r	4r	4r
.	.	16dd	16ff#
.	.	16cc#	16ee
.	.	16dd	16ff#
.	.	16ee	16gg
=65	=65	=65	=65
2.r	2.r	4ff#	4aa
.	.	4ff#	4aa
.	.	16gg	16bb
.	.	16ff#	16aa#
.	.	16gg	16bb
.	.	16aa	16ccc#
=66	=66	=66	=66
2.r	2.r	4bb	4ddd
.	.	4bb	4ddd
.	.	4r	4r
=67	=67	=67	=67
2.r	2.r	2.r	2.r
=68	=68	=68	=68
2.r	2.r	2r	2r
.	.	16ee	16gg
.	.	16dd#	16ff#
.	.	16ee	16gg
.	.	16ff#	16aa
=69	=69	=69	=69
2.E	2.e	4gg	4bb
.	.	4gg	4bb
.	.	[4gg	[4bb
=70	=70	=70	=70
2BB	2B	4gg]	4bb]
.	.	4ff#	4aa
4BB-	4B-	[4ee	[4gg
=71	=71	=71	=71
2AA	2A	4ee]	4gg]
.	.	4dd	4ff#
4AA	4G	4cc#	4ee
=72	=72	=72	=72
4D	4F#	4dd	4dd
4r	4r	2r	2r
16D	16f#	.	.
16C#	16e	.	.
16D	16f#	.	.
16E	16g	.	.
=73	=73	=73	=73
4F#	4a	2r	2r
4F#	4a	.	.
4r	4r	16dd	16ff#
.	.	16cc#	16ee
.	.	16dd	16ff#
.	.	16ee	16gg
=74	=74	=74	=74
2r	2r	4ff#	4aa
.	.	4ff#	4aa
16G	16b	4r	4r
16F#	16a#	.	.
16G	16b	.	.
16A	16cc#	.	.
=75	=75	=75	=75
4B	4dd	2r	2r
4B	4dd	.	.
4r	4r	16gg	16bb
.	.	16ff#	16aa#
.	.	16gg	16bb
.	.	16aa	16ccc#
=76	=76	=76	=76
2.r	2.r	4bb	4ddd
.	.	4bb	4ddd
.	.	4r	4r
=77	=77	=77	=77
2.r	2.r	2.r	2.r
=78	=78	=78	=78
2.r	2.r	2r	2r
.	.	16ee	16gg
.	.	16dd#	16ff#
.	.	16ee	16gg
.	.	16ff#	16aa
=79	=79	=79	=79
2.E	2.e	4gg	4bb
.	.	4gg	4bb
.	.	[4gg	[4bb
=80	=80	=80	=80
2BB	2B	4gg]	4bb]
.	.	4ff#	4aa
4BB-	4B-	[4ee	[4gg
=81	=81	=81	=81
2AA	2A	4ee]	4gg]
.	.	4dd#	4ff#
4AA#	4A#	[4ee	[4gg
=82	=82	=82	=82
2BB	2B	4ee]	4gg]
.	.	4dd#	4ff#
4BB#	4B#	[4ee	[4gg
=83	=83	=83	=83
4C#	4c#	4ee]	4gg]
4D	4d	4dd	4ff#
4G	[4g	[4b	[4ee
=84	=84	=84	=84
2.A	4g]	4b]	4ee]
.	4f#	4a	4dd
.	[4f#	[4a	[4dd
=85	=85	=85	=85
2.AA	4f#]	4a]	4dd]
.	4e	4g	4cc#
.	4e	4g	4cc#
=86	=86	=86	=86
4D	4d	4f#	4dd
2r	2r	2r	2r
==	==	==	==
*-	*-	*-	*-
!!!RWG1: This file contains only pitch and duration data.
!!!RWG2: Transposing instruments are not transposed.
!!!RWG3: Spines may have incompatible meters.
!!!RWG4: Durations of rests and tied notes may be interpreted.
!!!RWG: Key is interpreted using the Humdrum key tool.
!!!GTL: 6 Quartetti ("Prussian")
!!!OPT: The Frog
!!!AFT: stage1
!!!END: 1997/04/15
!!!KEY: 267944957
!!!EMD: Converted from MuseData to Humdrum Dec 16, 2000, by Andreas Kornstaedt using muse2kern.
!!!EMD: Manual editing by Craig Sapp, Nov 2001
